src/fonts/icon-12/lock.svg

<?xml version="1.0" encoding="utf-8"?>
<!-- Generator: Adobe Illustrator 19.2.1, SVG Export Plug-In . SVG Version: 6.00 Build 0)  -->
<svg version="1.1" xmlns="http://www.w3.org/2000/svg" xmlns:xlink="http://www.w3.org/1999/xlink" x="0px" y="0px"
	 viewBox="0 0 960 960" enable-background="new 0 0 960 960" xml:space="preserve">
<g id="row-5">
	<path id="lock" d="M800,320c0-21.9,0-47.7,0-80C800,63.3,656.7-80,480-80S160,63.3,160,240c0,32.3,0,58.1,0,80
		C71.6,320,0,391.6,0,480c0,160,0,160,0,320c0,88.4,71.6,160,160,160c280,0,360,0,640,0c88.4,0,160-71.6,160-160c0-160,0-160,0-320
		C960,391.6,888.4,320,800,320z M560,640c0,44.2-35.8,80-80,80s-80-35.8-80-80c0-40,0-40,0-80c0-44.2,35.8-80,80-80s80,35.8,80,80
		C560,600,560,600,560,640z M640,320c-118.4,0-201.6,0-320,0c0-21.9,0-47.7,0-80c0-88.4,71.6-160,160-160s160,71.6,160,160
		C640,272.3,640,298.1,640,320z"/>
</g>
<g id="row-4">
</g>
<g id="row-3">
	<g id="alert">
	</g>
	<g id="expand">
	</g>
	<g id="collapse">
	</g>
	<g id="colections">
	</g>
	<g id="briefcase">
	</g>
	<g id="flag">
	</g>
	<g id="flag-small">
	</g>
	<g id="signpost">
	</g>
	<g id="info-card">
	</g>
	<g id="journal">
	</g>
	<g id="network">
	</g>
	<g id="trash">
	</g>
	<g id="card">
	</g>
	<g id="browser">
	</g>
	<g id="arrows">
	</g>
	<g id="arrow-left-rod">
	</g>
</g>
<g id="row-2">
	<g id="arrow-right-rod">
	</g>
	<g id="arrow-up-short">
	</g>
	<g id="arrow-down-short">
	</g>
	<g id="heart-full">
	</g>
	<g id="balloon-comments-inline">
	</g>
	<g id="balloon-comments">
	</g>
	<g id="check">
	</g>
	<g id="balloon-topic">
	</g>
	<g id="persons">
	</g>
	<g id="groups">
	</g>
	<g id="building-big">
	</g>
	<g id="person-card-2">
	</g>
	<g id="person-card-3">
	</g>
	<g id="plus">
	</g>
	<g id="arrow-right-long">
	</g>
	<g id="arrow-left-long">
	</g>
</g>
<g id="row-1">
	<g id="heart-inline">
	</g>
	<g id="close-short">
	</g>
	<g id="hash">
	</g>
	<g id="people">
	</g>
	<g id="building-small">
	</g>
	<g id="person">
	</g>
	<g id="close-long">
	</g>
	<g id="post">
	</g>
	<g id="star">
	</g>
	<g id="heart">
	</g>
	<g id="link">
	</g>
	<g id="camera">
	</g>
	<g id="balloon-text">
	</g>
	<g id="pin">
	</g>
	<g id="clock">
	</g>
</g>
<g id="guides">
</g>
</svg>

<svg id="row-5" xmlns="http://www.w3.org/2000/svg" viewBox="0 0 960 960"><title>icon-12</title><path id="lock" d="M800,320V240C800,63.3,656.7-80,480-80S160,63.3,160,240v80A160,160,0,0,0,0,480V800A160,160,0,0,0,160,960H800A160,160,0,0,0,960,800V480A160,160,0,0,0,800,320ZM560,640a80,80,0,0,1-160,0V560a80,80,0,0,1,160,0v80Zm80-320H320V240a160,160,0,0,1,320,0v80Z"/></svg>
